dist/assets/images/icons/location.svg

<svg width="15" height="19" viewBox="0 0 15 19" fill="none" xmlns="http://www.w3.org/2000/svg">
<path fill-rule="evenodd" clip-rule="evenodd" d="M7.38764 18.3276L7.92754 17.8561C12.4676 13.8918 14.7753 10.4303 14.7753 7.38764C14.7753 3.07873 11.4122 0 7.38764 0C3.36306 0 0 3.07873 0 7.38764C0 10.4303 2.30766 13.8918 6.84775 17.8561L7.38764 18.3276ZM7.38672 16.1407C3.53415 12.6686 1.64077 9.72643 1.64077 7.38764C1.64077 4.01937 4.23804 1.6417 7.38672 1.6417C10.5354 1.6417 13.1327 4.01937 13.1327 7.38764C13.1327 9.72643 11.2393 12.6686 7.38672 16.1407ZM7.38672 3.2834C9.65343 3.2834 11.491 5.12093 11.491 7.38764C11.491 9.65436 9.65343 11.4919 7.38672 11.4919C5.12001 11.4919 3.28247 9.65436 3.28247 7.38764C3.28247 5.12093 5.12001 3.2834 7.38672 3.2834ZM4.92511 7.38766C4.92511 6.02763 6.02763 4.92511 7.38766 4.92511C8.74769 4.92511 9.85021 6.02763 9.85021 7.38766C9.85021 8.74769 8.74769 9.85021 7.38766 9.85021C6.02763 9.85021 4.92511 8.74769 4.92511 7.38766Z" fill="#DF0112"/>
</svg>

<svg width="15" height="19" fill="none" xmlns="http://www.w3.org/2000/svg"><path fill-rule="evenodd" clip-rule="evenodd" d="M7.388 18.328l.54-.472c4.54-3.964 6.847-7.426 6.847-10.468C14.775 3.078 11.412 0 7.388 0 3.363 0 0 3.079 0 7.388c0 3.042 2.308 6.504 6.848 10.468l.54.472zm-.001-2.187C3.534 12.669 1.64 9.726 1.64 7.388c0-3.369 2.597-5.746 5.746-5.746 3.148 0 5.746 2.377 5.746 5.746 0 2.338-1.894 5.28-5.746 8.753zm0-12.858a4.104 4.104 0 110 8.209 4.104 4.104 0 010-8.209zM4.925 7.388a2.463 2.463 0 114.925 0 2.463 2.463 0 01-4.925 0z" fill="#DF0112"/></svg>
